logos/white/tv.natgeowildhd.svg

<?xml version="1.0" encoding="UTF-8" standalone="no"?>
<!-- Created with Inkscape (http://www.inkscape.org/) -->

<svg
   xmlns:dc="http://purl.org/dc/elements/1.1/"
   xmlns:cc="http://creativecommons.org/ns#"
   xmlns:rdf="http://www.w3.org/1999/02/22-rdf-syntax-ns#"
   xmlns:svg="http://www.w3.org/2000/svg"
   xmlns="http://www.w3.org/2000/svg"
   xmlns:inkscape="http://www.inkscape.org/namespaces/inkscape"
   version="1.1"
   width="800pt"
   height="280pt"
   viewBox="0 0 800 280"
   id="svg2">
  <metadata
     id="metadata41">
    <rdf:RDF>
      <cc:Work
         rdf:about="">
        <dc:format>image/svg+xml</dc:format>
        <dc:type
           rdf:resource="http://purl.org/dc/dcmitype/StillImage" />
      </cc:Work>
    </rdf:RDF>
  </metadata>
  <defs
     id="defs39" />
  <g
     id="#808184ff"
     style="fill:#ffffff">
    <path
       d="m 227.93,22.04 c 3.16,0.02 6.33,0.02 9.49,0.08 11.18,16.67 22.77,33.09 33.01,50.37 0.16,-16.81 0.03,-33.62 0.07,-50.43 3.38,0 6.76,0 10.15,0 -0.04,23.89 0.04,47.79 -0.04,71.69 -3.06,0.09 -6.11,0.08 -9.16,0.02 -11.54,-16.69 -22.87,-33.52 -33.57,-50.76 0.2,16.93 -0.14,33.86 0.2,50.79 -3.39,0.03 -6.77,0.03 -10.15,0.03 0,-23.93 0,-47.86 0,-71.79 z"
       inkscape:connector-curvature="0"
       id="path5"
       style="fill:#ffffff" />
    <path
       d="m 308.97,22.06 c 3.44,0 6.89,0 10.33,0.03 7.43,23.92 14.98,47.8 22.27,71.76 -4.57,-0.04 -9.15,-0.02 -13.72,-0.02 -1.9,-6.59 -3.85,-13.16 -5.66,-19.78 -6.79,0.03 -13.57,0.01 -20.36,0.01 -2.34,6.44 -3.63,13.23 -6.29,19.54 -3.55,0.46 -7.14,0.18 -10.7,0.21 7.85,-23.98 16.08,-47.83 24.13,-71.75 m 3.86,14.04 c -2.08,9.85 -4.88,19.54 -7.9,29.14 5.08,0.01 10.16,0.01 15.24,0 -1.89,-9.85 -5.65,-19.25 -7.34,-29.14 z"
       inkscape:connector-curvature="0"
       id="path7"
       style="fill:#ffffff" />
    <path
       d="m 335.23,22.07 c 16.17,-0.02 32.33,-0.01 48.5,0 -0.01,3.33 -0.01,6.67 -0.01,10 -5.97,0 -11.93,0 -17.9,0 0.01,20.57 0.02,41.13 0,61.7 -4.22,0.09 -8.43,0.09 -12.63,0 -0.03,-20.57 -0.01,-41.13 -0.01,-61.7 -5.98,0 -11.95,0 -17.93,0 -0.01,-3.33 -0.01,-6.67 -0.02,-10 z"
       inkscape:connector-curvature="0"
       id="path9"
       style="fill:#ffffff" />
    <path
       d="m 434.49,24.26 c 7.7,-1.69 15.8,0.55 22.28,4.82 -1.27,2.85 -2.57,5.68 -3.86,8.51 -5.31,-2.8 -11.51,-4.59 -17.47,-2.94 -8.21,2.14 -13.36,10.37 -14.61,18.36 -0.51,6.38 -0.78,13.13 2.04,19.07 2.33,5.73 7.08,10.83 13.28,12.2 3.8,0.85 7.69,0.04 11.36,-1 -0.03,-7 0.01,-13.99 -0.03,-20.99 3.86,-0.02 7.72,-0.02 11.59,0.01 -0.25,9.55 -0.11,19.1 -0.11,28.64 -10.68,3.91 -23,5.93 -33.6,0.66 -7.88,-4.43 -14.02,-12.2 -15.99,-21.08 -2.53,-9.52 -1.8,-19.91 2.28,-28.9 4.45,-8.79 12.96,-15.82 22.84,-17.36 z"
       inkscape:connector-curvature="0"
       id="path11"
       style="fill:#ffffff" />
    <path
       d="m 531.37,24.59 c 8.54,-2.6 18.05,0.72 24.23,6.88 6,5.53 8.81,13.64 9.97,21.52 1.13,11.94 -1.16,25.12 -9.6,34.15 -9.55,10.48 -28.28,10.28 -37.4,-0.65 -7.68,-8.06 -9.63,-19.77 -9.11,-30.5 -0.13,-13.52 8.3,-27.88 21.91,-31.4 m 2.1,10.03 c -7,2.28 -10.06,10 -11.32,16.63 -1.2,9.21 -0.7,19.28 4.34,27.36 2.4,3.85 6.68,5.96 11.13,6.21 2.85,-0.54 5.92,-0.99 8.11,-3.1 4.75,-3.88 5.95,-10.26 7.01,-15.97 1.19,-7.93 0.53,-16.34 -2.86,-23.68 -2.8,-5.99 -9.98,-9.68 -16.41,-7.45 z"
       inkscape:connector-curvature="0"
       id="path13"
       style="fill:#ffffff" />
    <path
       d="m 470.72,24.94 c 10.09,-0.01 20.19,0 30.28,-0.01 0.06,3.22 0.06,6.44 0.07,9.66 -6.38,0.04 -12.76,0 -19.14,0.04 -0.01,6.1 0.01,12.21 0.15,18.31 6.24,0.22 12.48,0.05 18.72,0.12 -0.01,3.18 -0.01,6.35 0.02,9.53 -6.3,0.05 -12.59,0 -18.88,0.04 -0.04,7.22 0.01,14.43 0.14,21.65 7.57,0 15.15,-0.01 22.73,0.01 -0.02,3.18 -0.02,6.35 -0.02,9.52 -11.36,0.04 -22.71,0 -34.07,0.02 0,-22.96 0,-45.93 0,-68.89 z"
       inkscape:connector-curvature="0"
       id="path15"
       style="fill:#ffffff" />
    <path
       d="m 216.41,112.1 c 12.5,-1.4 24.98,-3.01 37.5,-4.2 5.87,34.58 11.37,69.24 16.44,103.94 8.08,-34.19 17.02,-68.17 26.79,-101.91 10.21,0 20.41,-0.02 30.62,0.01 3.4,12.61 7.39,25.05 10.89,37.63 4.08,15.52 8.96,30.83 12.49,46.49 1.6,6.25 3.15,12.51 4.8,18.75 3.84,-35.11 9.73,-69.97 14.97,-104.89 10.83,1.1 21.59,2.79 32.4,4.16 -3.65,19.74 -7.71,39.4 -11.79,59.06 -3.61,19.35 -7.72,38.59 -11.55,57.9 -1.59,9.39 -3.69,18.69 -5.55,28.03 -13.67,-0.02 -27.35,0 -41.03,-0.01 -8.56,-29.07 -16.99,-58.21 -23.79,-87.76 -3.02,13.88 -6.16,27.73 -9.65,41.5 -3.44,15.55 -8.29,30.75 -11.9,46.27 -13.75,-0.01 -27.51,-0.01 -41.27,-0.01 -10.19,-48.3 -20.39,-96.61 -30.37,-144.96 z"
       inkscape:connector-curvature="0"
       id="path17"
       style="fill:#ffffff" />
    <path
       d="m 410.21,109.94 c 12.46,0.05 24.92,-0.17 37.38,0.12 0.11,49 0.04,98 0.04,147 -12.48,0 -24.97,0 -37.45,0 0,-49.04 -0.05,-98.08 0.03,-147.12 z"
       inkscape:connector-curvature="0"
       id="path19"
       style="fill:#ffffff" />
    <path
       d="m 463.46,109.92 c 12.28,0.01 24.56,0 36.85,0.01 -0.01,39.78 0.01,79.57 -0.01,119.35 14.73,-0.01 29.47,0 44.21,0 -0.02,9.26 -0.01,18.52 -0.01,27.78 -27.01,0 -54.02,0.01 -81.03,0 -0.01,-49.04 0,-98.09 -0.01,-147.14 z"
       inkscape:connector-curvature="0"
       id="path21"
       style="fill:#ffffff" />
    <path
       d="m 555.21,109.93 c 16.28,0.04 32.56,-0.1 48.84,0.07 13.4,0.14 27.08,3.22 38.43,10.55 14.05,9.21 22.92,24.87 25.8,41.21 1.93,8.67 1.53,17.57 1.38,26.38 -1.32,17.52 -6.66,35.58 -19.01,48.58 -12.23,13.52 -30.72,20.12 -48.67,20.35 -15.59,-0.01 -31.18,0 -46.76,-0.01 -0.02,-49.04 -0.01,-98.09 -0.01,-147.13 m 36.72,28.18 c 0.12,30.39 -0.19,60.78 0.15,91.17 9.21,0.45 19.43,0.02 26.6,-6.61 8.01,-7.95 11.27,-19.36 12.61,-30.28 1.2,-12.06 1.3,-24.78 -3.76,-36.05 -3.23,-6.82 -8.06,-13.4 -15.2,-16.42 -6.44,-2.85 -13.59,-1.62 -20.4,-1.81 z"
       inkscape:connector-curvature="0"
       id="path23"
       style="fill:#ffffff" />
    <path
       d="m 680.73,189.68 c 34.08,-0.02 68.15,-0.01 102.22,-0.01 -0.02,21.87 -0.01,43.74 -0.01,65.61 -46.79,-0.03 -93.59,0.06 -140.39,-0.05 15,-6.95 26.07,-20.75 31.85,-36.02 3.78,-9.4 5.78,-19.44 6.33,-29.53 m 17.54,13.44 c 0.03,13.02 -0.02,26.04 0.03,39.06 2.8,-0.03 5.61,-0.04 8.42,-0.05 0.01,-5.58 0.01,-11.17 -0.04,-16.75 3.86,-0.05 7.72,-0.07 11.58,-0.09 0.02,5.62 0.02,11.25 0.03,16.87 2.8,-0.01 5.61,-0.01 8.42,-0.01 0.03,-13.01 -0.01,-26.02 0.02,-39.03 -2.82,0 -5.65,0 -8.46,0 0.01,4.91 0,9.82 0.01,14.73 -3.86,-0.01 -7.71,-0.01 -11.56,0 0,-4.91 -0.01,-9.82 0.01,-14.73 -2.82,0 -5.65,0 -8.46,0 m 37.36,0 c -0.01,13 -0.02,26 0,39.01 6.23,0.13 12.58,0.67 18.69,-0.82 5.97,-2.07 10.21,-7.88 10.89,-14.1 1.14,-7.34 0.08,-16.5 -6.67,-20.89 -6.75,-4.62 -15.26,-2.88 -22.91,-3.2 z"
       inkscape:connector-curvature="0"
       id="path25"
       style="fill:#ffffff" />
    <path
       d="m 744.5,210.27 c 2.91,0.22 6.3,-0.51 8.73,1.52 3.18,2.28 3.63,6.57 3.62,10.19 -0.24,4.1 -0.94,8.91 -4.64,11.38 -2.36,1.16 -5.12,0.77 -7.65,1 -0.04,-8.03 0.03,-16.06 -0.06,-24.09 z"
       inkscape:connector-curvature="0"
       id="path27"
       style="fill:#ffffff" />
  </g>
  <g
     id="#fad91aff">
    <path
       d="m 17.45,23.43 c 54.44,0.13 108.88,0 163.32,0.07 -0.05,78.09 -0.07,156.18 0.01,234.28 -54.45,-0.1 -108.9,-0.09 -163.35,-0.01 0.14,-78.11 0.08,-156.22 0.02,-234.34 m 23.54,24.11 c 0.16,62.24 0.03,124.49 0.06,186.74 38.63,-0.04 77.25,0.08 115.87,-0.06 0.17,-62.23 -0.18,-124.46 0.13,-186.68 -38.69,-0.03 -77.37,-0.03 -116.06,0 z"
       inkscape:connector-curvature="0"
       id="path30"
       style="fill:#fad91a" />
  </g>
  <g
     id="#ffffffff"
     style="fill:#000000">
    <path
       d="m 698.27,203.12 c 2.81,0 5.64,0 8.46,0 -0.02,4.91 -0.01,9.82 -0.01,14.73 3.85,-0.01 7.7,-0.01 11.56,0 -0.01,-4.91 0,-9.82 -0.01,-14.73 2.81,0 5.64,0 8.46,0 -0.03,13.01 0.01,26.02 -0.02,39.03 -2.81,0 -5.62,0 -8.42,0.01 -0.01,-5.62 -0.01,-11.25 -0.03,-16.87 -3.86,0.02 -7.72,0.04 -11.58,0.09 0.05,5.58 0.05,11.17 0.04,16.75 -2.81,0.01 -5.62,0.02 -8.42,0.05 -0.05,-13.02 0,-26.04 -0.03,-39.06 z"
       inkscape:connector-curvature="0"
       id="path33"
       style="fill:#000000" />
    <path
       d="m 735.63,203.12 c 7.65,0.32 16.16,-1.42 22.91,3.2 6.75,4.39 7.81,13.55 6.67,20.89 -0.68,6.22 -4.92,12.03 -10.89,14.1 -6.11,1.49 -12.46,0.95 -18.69,0.82 -0.02,-13.01 -0.01,-26.01 0,-39.01 m 8.87,7.15 c 0.09,8.03 0.02,16.06 0.06,24.09 2.53,-0.23 5.29,0.16 7.65,-1 3.7,-2.47 4.4,-7.28 4.64,-11.38 0.01,-3.62 -0.44,-7.91 -3.62,-10.19 -2.43,-2.03 -5.82,-1.3 -8.73,-1.52 z"
       inkscape:connector-curvature="0"
       id="path35"
       style="fill:#000000" />
  </g>
</svg>

<?xml version="1.0" encoding="UTF-8" standalone="no"?>
<svg
   xmlns:dc="http://purl.org/dc/elements/1.1/"
   xmlns:cc="http://creativecommons.org/ns#"
   xmlns:rdf="http://www.w3.org/1999/02/22-rdf-syntax-ns#"
   xmlns:svg="http://www.w3.org/2000/svg"
   xmlns="http://www.w3.org/2000/svg"
   xmlns:sodipodi="http://sodipodi.sourceforge.net/DTD/sodipodi-0.dtd"
   xmlns:inkscape="http://www.inkscape.org/namespaces/inkscape"
   width="800pt"
   height="280pt"
   viewBox="0 0 800 280"
   version="1.1"
   id="svg2"
   inkscape:version="0.48.4 r9939"
   sodipodi:docname="tv.natgeowildhd.svg">
  <metadata
     id="metadata41">
    <rdf:RDF>
      <cc:Work
         rdf:about="">
        <dc:format>image/svg+xml</dc:format>
        <dc:type
           rdf:resource="http://purl.org/dc/dcmitype/StillImage" />
      </cc:Work>
    </rdf:RDF>
  </metadata>
  <defs
     id="defs39" />
  <sodipodi:namedview
     pagecolor="#ffffff"
     bordercolor="#666666"
     borderopacity="1"
     objecttolerance="10"
     gridtolerance="10"
     guidetolerance="10"
     inkscape:pageopacity="0"
     inkscape:pageshadow="2"
     inkscape:window-width="1280"
     inkscape:window-height="747"
     id="namedview37"
     showgrid="false"
     inkscape:zoom="0.706"
     inkscape:cx="495.24259"
     inkscape:cy="174.91901"
     inkscape:window-x="-8"
     inkscape:window-y="-8"
     inkscape:window-maximized="1"
     inkscape:current-layer="svg2" />
  <g
     id="#808184ff"
     style="fill:#ffffff">
    <path
       fill="#808184"
       opacity="1.00"
       d=" M 227.93 22.04 C 231.09 22.06 234.26 22.06 237.42 22.12 C 248.60 38.79 260.19 55.21 270.43 72.49 C 270.59 55.68 270.46 38.87 270.50 22.06 C 273.88 22.06 277.26 22.06 280.65 22.06 C 280.61 45.95 280.69 69.85 280.61 93.75 C 277.55 93.84 274.50 93.83 271.45 93.77 C 259.91 77.08 248.58 60.25 237.88 43.01 C 238.08 59.94 237.74 76.87 238.08 93.80 C 234.69 93.83 231.31 93.83 227.93 93.83 C 227.93 69.90 227.93 45.97 227.93 22.04 Z"
       id="path5"
       style="fill:#ffffff" />
    <path
       fill="#808184"
       opacity="1.00"
       d=" M 308.97 22.06 C 312.41 22.06 315.86 22.06 319.30 22.09 C 326.73 46.01 334.28 69.89 341.57 93.85 C 337.00 93.81 332.42 93.83 327.85 93.83 C 325.95 87.24 324.00 80.67 322.19 74.05 C 315.40 74.08 308.62 74.06 301.83 74.06 C 299.49 80.50 298.20 87.29 295.54 93.60 C 291.99 94.06 288.40 93.78 284.84 93.81 C 292.69 69.83 300.92 45.98 308.97 22.06 M 312.83 36.10 C 310.75 45.95 307.95 55.64 304.93 65.24 C 310.01 65.25 315.09 65.25 320.17 65.24 C 318.28 55.39 314.52 45.99 312.83 36.10 Z"
       id="path7"
       style="fill:#ffffff" />
    <path
       fill="#808184"
       opacity="1.00"
       d=" M 335.23 22.07 C 351.40 22.05 367.56 22.06 383.73 22.07 C 383.72 25.40 383.72 28.74 383.72 32.07 C 377.75 32.07 371.79 32.07 365.82 32.07 C 365.83 52.64 365.84 73.20 365.82 93.77 C 361.60 93.86 357.39 93.86 353.19 93.77 C 353.16 73.20 353.18 52.64 353.18 32.07 C 347.20 32.07 341.23 32.07 335.25 32.07 C 335.24 28.74 335.24 25.40 335.23 22.07 Z"
       id="path9"
       style="fill:#ffffff" />
    <path
       fill="#808184"
       opacity="1.00"
       d=" M 434.49 24.26 C 442.19 22.57 450.29 24.81 456.77 29.08 C 455.50 31.93 454.20 34.76 452.91 37.59 C 447.60 34.79 441.40 33.00 435.44 34.65 C 427.23 36.79 422.08 45.02 420.83 53.01 C 420.32 59.39 420.05 66.14 422.87 72.08 C 425.20 77.81 429.95 82.91 436.15 84.28 C 439.95 85.13 443.84 84.32 447.51 83.28 C 447.48 76.28 447.52 69.29 447.48 62.29 C 451.34 62.27 455.20 62.27 459.07 62.30 C 458.82 71.85 458.96 81.40 458.96 90.94 C 448.28 94.85 435.96 96.87 425.36 91.60 C 417.48 87.17 411.34 79.40 409.37 70.52 C 406.84 61.00 407.57 50.61 411.65 41.62 C 416.10 32.83 424.61 25.80 434.49 24.26 Z"
       id="path11"
       style="fill:#ffffff" />
    <path
       fill="#808184"
       opacity="1.00"
       d=" M 531.37 24.59 C 539.91 21.99 549.42 25.31 555.60 31.47 C 561.60 37.00 564.41 45.11 565.57 52.99 C 566.70 64.93 564.41 78.11 555.97 87.14 C 546.42 97.62 527.69 97.42 518.57 86.49 C 510.89 78.43 508.94 66.72 509.46 55.99 C 509.33 42.47 517.76 28.11 531.37 24.59 M 533.47 34.62 C 526.47 36.90 523.41 44.62 522.15 51.25 C 520.95 60.46 521.45 70.53 526.49 78.61 C 528.89 82.46 533.17 84.57 537.62 84.82 C 540.47 84.28 543.54 83.83 545.73 81.72 C 550.48 77.84 551.68 71.46 552.74 65.75 C 553.93 57.82 553.27 49.41 549.88 42.07 C 547.08 36.08 539.90 32.39 533.47 34.62 Z"
       id="path13"
       style="fill:#ffffff" />
    <path
       fill="#808184"
       opacity="1.00"
       d=" M 470.72 24.94 C 480.81 24.93 490.91 24.94 501.00 24.93 C 501.06 28.15 501.06 31.37 501.07 34.59 C 494.69 34.63 488.31 34.59 481.93 34.63 C 481.92 40.73 481.94 46.84 482.08 52.94 C 488.32 53.16 494.56 52.99 500.80 53.06 C 500.79 56.24 500.79 59.41 500.82 62.59 C 494.52 62.64 488.23 62.59 481.94 62.63 C 481.90 69.85 481.95 77.06 482.08 84.28 C 489.65 84.28 497.23 84.27 504.81 84.29 C 504.79 87.47 504.79 90.64 504.79 93.81 C 493.43 93.85 482.08 93.81 470.72 93.83 C 470.72 70.87 470.72 47.90 470.72 24.94 Z"
       id="path15"
       style="fill:#ffffff" />
    <path
       fill="#808184"
       opacity="1.00"
       d=" M 216.41 112.10 C 228.91 110.70 241.39 109.09 253.91 107.90 C 259.78 142.48 265.28 177.14 270.35 211.84 C 278.43 177.65 287.37 143.67 297.14 109.93 C 307.35 109.93 317.55 109.91 327.76 109.94 C 331.16 122.55 335.15 134.99 338.65 147.57 C 342.73 163.09 347.61 178.40 351.14 194.06 C 352.74 200.31 354.29 206.57 355.94 212.81 C 359.78 177.70 365.67 142.84 370.91 107.92 C 381.74 109.02 392.50 110.71 403.31 112.08 C 399.66 131.82 395.60 151.48 391.52 171.14 C 387.91 190.49 383.80 209.73 379.97 229.04 C 378.38 238.43 376.28 247.73 374.42 257.07 C 360.75 257.05 347.07 257.07 333.39 257.06 C 324.83 227.99 316.40 198.85 309.60 169.30 C 306.58 183.18 303.44 197.03 299.95 210.80 C 296.51 226.35 291.66 241.55 288.05 257.07 C 274.30 257.06 260.54 257.06 246.78 257.06 C 236.59 208.76 226.39 160.45 216.41 112.10 Z"
       id="path17"
       style="fill:#ffffff" />
    <path
       fill="#808184"
       opacity="1.00"
       d=" M 410.21 109.94 C 422.67 109.99 435.13 109.77 447.59 110.06 C 447.70 159.06 447.63 208.06 447.63 257.06 C 435.15 257.06 422.66 257.06 410.18 257.06 C 410.18 208.02 410.13 158.98 410.21 109.94 Z"
       id="path19"
       style="fill:#ffffff" />
    <path
       fill="#808184"
       opacity="1.00"
       d=" M 463.46 109.92 C 475.74 109.93 488.02 109.92 500.31 109.93 C 500.30 149.71 500.32 189.50 500.30 229.28 C 515.03 229.27 529.77 229.28 544.51 229.28 C 544.49 238.54 544.50 247.80 544.50 257.06 C 517.49 257.06 490.48 257.07 463.47 257.06 C 463.46 208.02 463.47 158.97 463.46 109.92 Z"
       id="path21"
       style="fill:#ffffff" />
    <path
       fill="#808184"
       opacity="1.00"
       d=" M 555.21 109.93 C 571.49 109.97 587.77 109.83 604.05 110.00 C 617.45 110.14 631.13 113.22 642.48 120.55 C 656.53 129.76 665.40 145.42 668.28 161.76 C 670.21 170.43 669.81 179.33 669.66 188.14 C 668.34 205.66 663.00 223.72 650.65 236.72 C 638.42 250.24 619.93 256.84 601.98 257.07 C 586.39 257.06 570.80 257.07 555.22 257.06 C 555.20 208.02 555.21 158.97 555.21 109.93 M 591.93 138.11 C 592.05 168.50 591.74 198.89 592.08 229.28 C 601.29 229.73 611.51 229.30 618.68 222.67 C 626.69 214.72 629.95 203.31 631.29 192.39 C 632.49 180.33 632.59 167.61 627.53 156.34 C 624.30 149.52 619.47 142.94 612.33 139.92 C 605.89 137.07 598.74 138.30 591.93 138.11 Z"
       id="path23"
       style="fill:#ffffff" />
    <path
       fill="#808184"
       opacity="1.00"
       d=" M 680.73 189.68 C 714.81 189.66 748.88 189.67 782.95 189.67 C 782.93 211.54 782.94 233.41 782.94 255.28 C 736.15 255.25 689.35 255.34 642.55 255.23 C 657.55 248.28 668.62 234.48 674.40 219.21 C 678.18 209.81 680.18 199.77 680.73 189.68 M 698.27 203.12 C 698.30 216.14 698.25 229.16 698.30 242.18 C 701.10 242.15 703.91 242.14 706.72 242.13 C 706.73 236.55 706.73 230.96 706.68 225.38 C 710.54 225.33 714.40 225.31 718.26 225.29 C 718.28 230.91 718.28 236.54 718.29 242.16 C 721.09 242.15 723.90 242.15 726.71 242.15 C 726.74 229.14 726.70 216.13 726.73 203.12 C 723.91 203.12 721.08 203.12 718.27 203.12 C 718.28 208.03 718.27 212.94 718.28 217.85 C 714.42 217.84 710.57 217.84 706.72 217.85 C 706.72 212.94 706.71 208.03 706.73 203.12 C 703.91 203.12 701.08 203.12 698.27 203.12 M 735.63 203.12 C 735.62 216.12 735.61 229.12 735.63 242.13 C 741.86 242.26 748.21 242.80 754.32 241.31 C 760.29 239.24 764.53 233.43 765.21 227.21 C 766.35 219.87 765.29 210.71 758.54 206.32 C 751.79 201.70 743.28 203.44 735.63 203.12 Z"
       id="path25"
       style="fill:#ffffff" />
    <path
       fill="#808184"
       opacity="1.00"
       d=" M 744.50 210.27 C 747.41 210.49 750.80 209.76 753.23 211.79 C 756.41 214.07 756.86 218.36 756.85 221.98 C 756.61 226.08 755.91 230.89 752.21 233.36 C 749.85 234.52 747.09 234.13 744.56 234.36 C 744.52 226.33 744.59 218.30 744.50 210.27 Z"
       id="path27"
       style="fill:#ffffff" />
  </g>
  <g
     id="#fad91aff">
    <path
       fill="#fad91a"
       opacity="1.00"
       d=" M 17.45 23.43 C 71.89 23.56 126.33 23.43 180.77 23.50 C 180.72 101.59 180.70 179.68 180.78 257.78 C 126.33 257.68 71.88 257.69 17.43 257.77 C 17.57 179.66 17.51 101.55 17.45 23.43 M 40.99 47.54 C 41.15 109.78 41.02 172.03 41.05 234.28 C 79.68 234.24 118.30 234.36 156.92 234.22 C 157.09 171.99 156.74 109.76 157.05 47.54 C 118.36 47.51 79.68 47.51 40.99 47.54 Z"
       id="path30" />
  </g>
  <g
     id="#ffffffff"
     style="fill:#000000">
    <path
       fill="#ffffff"
       opacity="1.00"
       d=" M 698.27 203.12 C 701.08 203.12 703.91 203.12 706.73 203.12 C 706.71 208.03 706.72 212.94 706.72 217.85 C 710.57 217.84 714.42 217.84 718.28 217.85 C 718.27 212.94 718.28 208.03 718.27 203.12 C 721.08 203.12 723.91 203.12 726.73 203.12 C 726.70 216.13 726.74 229.14 726.71 242.15 C 723.90 242.15 721.09 242.15 718.29 242.16 C 718.28 236.54 718.28 230.91 718.26 225.29 C 714.40 225.31 710.54 225.33 706.68 225.38 C 706.73 230.96 706.73 236.55 706.72 242.13 C 703.91 242.14 701.10 242.15 698.30 242.18 C 698.25 229.16 698.30 216.14 698.27 203.12 Z"
       id="path33"
       style="fill:#000000" />
    <path
       fill="#ffffff"
       opacity="1.00"
       d=" M 735.63 203.12 C 743.28 203.44 751.79 201.70 758.54 206.32 C 765.29 210.71 766.35 219.87 765.21 227.21 C 764.53 233.43 760.29 239.24 754.32 241.31 C 748.21 242.80 741.86 242.26 735.63 242.13 C 735.61 229.12 735.62 216.12 735.63 203.12 M 744.50 210.27 C 744.59 218.30 744.52 226.33 744.56 234.36 C 747.09 234.13 749.85 234.52 752.21 233.36 C 755.91 230.89 756.61 226.08 756.85 221.98 C 756.86 218.36 756.41 214.07 753.23 211.79 C 750.80 209.76 747.41 210.49 744.50 210.27 Z"
       id="path35"
       style="fill:#000000" />
  </g>
</svg>
